icons/baby_0203m_fill.svg

<svg width="48" height="48" viewBox="0 0 48 48" fill="none" xmlns="http://www.w3.org/2000/svg">
<path d="M24 17C27.0375 17 29.5 14.5376 29.5 11.5C29.5 8.46243 27.0375 6 24 6C20.9624 6 18.5 8.46243 18.5 11.5C18.5 14.5376 20.9624 17 24 17Z" fill="black"/>
<path d="M28.9999 22.5357C30.7024 22.2895 32.4955 21.92 34.4802 21.429C35.5525 21.1638 36.2067 20.0795 35.9414 19.0073C35.6762 17.935 34.592 17.2808 33.5197 17.5461C29.7071 18.4892 26.8335 18.9127 24.0074 18.902C21.1755 18.8912 18.2944 18.4442 14.4584 17.5408C13.3833 17.2876 12.3064 17.9539 12.0532 19.0291C11.8 20.1042 12.4663 21.1811 13.5415 21.4343C15.5157 21.8992 17.302 22.2613 18.9999 22.5095V25H28.9999V22.5357Z" fill="black"/>
<path fill-rule="evenodd" clip-rule="evenodd" d="M26.6793 31.9796C28.4295 31.2002 28.9999 29.5736 28.9999 28.9404V27H18.9999V28.9404C18.9999 29.5736 19.5703 31.2002 21.3205 31.9796C21.5208 32.0688 21.7459 32.1806 21.9482 32.281L22.0673 32.3401C22.316 32.463 22.5566 32.5792 22.7999 32.6823C23.3074 32.8973 23.7033 33 23.9999 33C24.2966 33 24.6924 32.8973 25.1999 32.6823C25.4433 32.5792 25.6839 32.463 25.9325 32.3401L26.0516 32.2811M26.6793 31.9796C26.4791 32.0688 26.2539 32.1806 26.0516 32.2811L26.6793 31.9796Z" fill="black"/>
<path d="M20.4348 33.8564C19.2526 33.3191 18.4585 32.507 17.9809 31.6995C16.4293 33.0501 15.5748 34.7484 15.5748 36.9895C15.5748 37.8834 15.766 39.2247 16.263 40.3117C16.7719 41.4249 17.4551 42 18.3186 42C19.2452 42 20.0295 41.2909 20.0295 40.3783C20.0295 39.9723 19.8577 39.5884 19.5859 39.0177L19.5679 38.98C19.3216 38.4636 18.9965 37.7819 18.9965 36.9895C18.9965 36.1227 19.4264 35.2027 19.9266 34.4579C20.0873 34.2188 20.2572 34.0242 20.4348 33.8564Z" fill="black"/>
<path d="M27.5652 33.8562C28.7473 33.319 29.5414 32.5069 30.0191 31.6994C31.5707 33.0499 32.4253 34.7483 32.4253 36.9895C32.4253 37.8834 32.234 39.2247 31.7371 40.3117C31.2282 41.4249 30.5449 42 29.6814 42C28.7548 42 27.9705 41.2909 27.9705 40.3783C27.9705 39.9723 28.1423 39.5884 28.4142 39.0177L28.4322 38.98C28.6784 38.4636 29.0035 37.7819 29.0035 36.9895C29.0035 36.1227 28.5737 35.2027 28.0734 34.4579C27.9127 34.2187 27.7427 34.0241 27.5652 33.8562Z" fill="black"/>
</svg>

<svg
  xmlns="http://www.w3.org/2000/svg"
  width="24"
  height="24"
  viewBox="0 0 24 24"
  fill="none"
  stroke="currentColor"
  stroke-width="2"
  stroke-linecap="round"
  stroke-linejoin="round"
>
  <path d="M24 17a5.5 5.5 0 1 0 0-11 5.5 5.5 0 0 0 0 11" />
  <path d="M29 22.536c1.702-.247 3.496-.616 5.48-1.107a2 2 0 1 0-.96-3.883c-3.813.943-6.687 1.367-9.513 1.356-2.832-.01-5.713-.458-9.549-1.361a2 2 0 1 0-.917 3.893c1.975.465 3.761.827 5.459 1.075V25h10z" />
  <path
    fill-rule="evenodd"
    d="M26.68 31.98c1.75-.78 2.32-2.406 2.32-3.04V27H19v1.94c0 .634.57 2.26 2.32 3.04.2.089.426.2.628.301l.12.06c.248.122.489.238.732.341.507.215.903.318 1.2.318s.692-.103 1.2-.318c.243-.103.484-.219.733-.342l.119-.059m.627-.301c-.2.089-.425.2-.627.301z"
    clip-rule="evenodd"
  />
  <path d="M20.435 33.856c-1.182-.537-1.976-1.349-2.454-2.157-1.552 1.351-2.406 3.05-2.406 5.29 0 .894.191 2.236.688 3.323.509 1.113 1.192 1.688 2.056 1.688.926 0 1.71-.71 1.71-1.622 0-.406-.171-.79-.443-1.36l-.018-.038c-.246-.516-.572-1.198-.572-1.99 0-.867.43-1.787.93-2.532.161-.24.331-.434.509-.602" />
  <path d="M27.565 33.856c1.182-.537 1.976-1.35 2.454-2.157 1.552 1.35 2.406 3.05 2.406 5.29 0 .894-.191 2.236-.688 3.323C31.228 41.425 30.545 42 29.681 42c-.926 0-1.71-.71-1.71-1.622 0-.406.171-.79.443-1.36l.018-.038c.246-.516.572-1.198.572-1.99 0-.867-.43-1.787-.93-2.532-.161-.24-.331-.434-.509-.602" />
</svg>
